X:569
T:Jimmy Ward's Fancy
C:Jimmy Ward
B:100 Evergreen irish Session Tunes
Z:Nigel Gatherer
L:1/8
M:6/8
K:G
E | G3  GAB | AGE GED | GAG AGE | GED D2E  |
    GAG GAB | AGE GAB | cBA BGE | DED D2  :|
B | c2A BAG | ABA AGE | cBA BGE | DED DAB  |
    cBA BAG | ABA ABc | dcB AGE | DED D2 :|]
<end>
<start>
